NetIcons150/PluginGame%28RiderLight%29.svg

<svg width="16" height="16" viewBox="0 0 16 16" xmlns="http://www.w3.org/2000/svg">
  <path fill="#40b6e0" d="M6 10V8H3v2H1v3h2v2h3v-2h2v-3H6Zm-3.5 2a.5.5 0 1 1 0-1 .5.5 0 0 1 0 1Zm2 2a.5.5 0 1 1 0-1 .5.5 0 0 1 0 1Zm0-4a.5.5 0 1 1 0-1 .5.5 0 0 1 0 1Zm2 2a.5.5 0 1 1 0-1 .5.5 0 0 1 0 1Z"/>
  <path fill="#9aa7b0" d="M12 9v2H8.95a4.471 4.471 0 0 0-.71-2H10V3H7a1 1 0 0 0-1 1v3.276A4.44 4.44 0 0 0 4.5 7H2V5h2V4a3 3 0 0 1 3-3h5v8Zm.5-2H15v2h-2.5V7Zm0-4H15v2h-2.5V3Z"/>
</svg>

<svg xmlns="http://www.w3.org/2000/svg" width="16" height="16">
  <path fill="#40b6e0" fill-rule="evenodd" d="M6 10L6 8 3 8 3 10 1 10 1 13 3 13 3 15 6 15 6 13 8 13 8 10 6 10z"/>
  <circle cx="2.5" cy="11.5" r=".5" fill="#fff"/>
  <circle cx="4.5" cy="13.5" r=".5" fill="#fff"/>
  <circle cx="4.5" cy="9.5" r=".5" fill="#fff"/>
  <circle cx="6.5" cy="11.5" r=".5" fill="#fff"/>
  <path d="M12 9v2H8.95a4.478 4.478 0 00-.71-2H10V3H7A1 1 0 006 4V7.276A4.445 4.445 0 004.5 7H2V5H4V4A3 3 0 017 1h5V9zM12.5 7H15V9H12.5zM12.5 3H15V5H12.5z" fill="#9aa7b0" opacity=".8"/>
</svg>
